X:1
T:Titel (500)
T:Come again
T:John Dowland (1562-1626)
T: 
T:526
T:The Firste Booke of Songs and Ayres (1597)
C:John Dowland
%%score 1 2 3 4
L:1/8
Q:1/2=60
M:2/2
K:G
V:1 treble nm="S"
V:2 treble nm="A"
V:3 treble-8 nm="T"
V:4 bass nm="B"
V:1
 z4 B3 c | d8 | z4 d4 | e4 d4 | c6 c2 | B8 | z4 d4 | d4 c4 | B4 B4 | A8 | z4 A4 | B4 G4 | A6 A2 | %13
w: Come a-|gain,|sweet|love doth|now in-|vite|Thy|gra- ces,|that re-|frain|To|do me|due de-|
w: Come a-|gain,|that|I may|cease to|mourn,|Through|thy un-|kind dis-|dain;|For|now, left|and for-|
w: Gen- tle|love,|draw|forth thy|wound- ing|dart,|Thou|canst not|pierce her|heart;|For|I that|do ap-|
 A8 |: z2 D2 G4 | z2 E2 A4 | z2 F2 B4 | z2 G2 c4 | z2 A2 d4- | d8- | d8 | z2 d2 c2 B2 | A4 z2 B2 | %23
w: light;|To see,|to hear,|to touch,|to kiss,|to die,|_||with thee a-|gain, in|
w: lorn,|I sit,|I sigh,|I weep,|I faint,|I die,|_||in dead- ly|pain, and|
w: prove|By sighs|and   tears|more hot|than are|thy shafts,|_||Do tempt;  while|she, while|
 A2 G2 (G4- | G2 FE F4) | G8 :| %26
w: swee- test sym-|* * * pa-|thy.|
w: end- less  mi-|* * * se-|ry.|
w: she for tri-|* * * umphs|laughs.|
V:2
 G6 G2 | G8 | z4 B4 | c4 d4 | e6 (dc) | d8 | z4 G4 | G4 (E3 F) | G6 G2 | F8 | z4 F4 | G6 D2 | %12
w: Come a-|gain,|sweet|love doth|now in- *|vite|Thy|gra- ces, _|that re-|frain|To|do me|
w: Come a-|gain,|that|I may|cease to _|mourn|Through|thy un- *|kind dis-|dain;|For|now, left|
w: Gen- tle|love,|draw|forth thy|wound- ing _|dart,|Thou|canst not _|pierce her|heart;|For|I that|
 E6 E2 | F8 |: D8 | E4 z2 E2 | F4 z2 F2 | G4 z2 G2 | A4 z2 A2 | B8- | B4 A4 | G3 =F E2 G2 | F6 G2 | %23
w: due de-|light;|To|see, to|hear, to|touch, to|kiss, to|die,|_ with|thee a- gain, a-|gain, in|
w: and for-|lorn,|I|sit, I|sigh, I|weep, I|faint, I|die,|_ I|die in dead- ly|pain, and|
w: do ap-|prove|By|sighs and|tears more|hot than|are thy|shafts,|_ Do|tempt; while she for|tri- umphs|
 E4 (B,2 C2) | D6 C2 | B,8 :| %26
w: sweet- est _|sym- pa-|thy.|
w: end- less _|mi- se-|ry.|
w: laughs, for _|tri- umphs|laughs.|
V:3
 d6 d2 | B8 | z4 B4 | c4 d4 | e6 (dc) | d8 | z4 B4 | B4 A4 | G4 d4 | d8 | z4 d4 | d6 d2 | d4 ^c4 | %13
w: Come a-|gain,|sweet|love doth|now in- *|vite|Thy|gra- ces,|that re-|frain|To|do me|due de-|
w: Come a-|gain,|that|I may|cease to _|mourn|Through|thy un-|kind dis-|dain;|For|now, left|and for-|
w: Gen- tle|love,|draw|forth thy|wound- ing _|dart,|Thou|canst not|pierce her|heart;|For|I that|do ap-|
 d8 |: G8 | G4 z2 c2 | A4 z2 d2 | B4 z2 e2 | d6 c2 | B2 G2 G2 A2 | B4 c4 | d4 z2 G2 | d6 d2 | %23
w: light;|To|see, to|hear, to|touch, to|kiss, to|die, to die with|thee a-|gain, with|thee a-|
w: lorn,|I|sit, I|sigh, I|weep, I|faint, I|die, I die in|dead- ly|pain, in|dead- ly|
w: prove|By|sighs and|tears more|hot than|are thy|shafts,   more hot  than|are thy|shafts, Do|tempt; while|
 c2 B2 B2 (AG) | A6 A2 | G8 :| %26
w: gain in swee- * test|sym- pa-|thy.|
w: pain, and end- * less|mi- se-|ry.|
w: she for tri- * *|* umphs|laughs.|
V:4
 G,4 G,4 | G,8 | z4 G,,4 | C,4 B,,4 | A,,6 A,,2 | G,,8 | z4 G,,4 | G,,4 G,,4 | B,,4 G,,4 | D,8 | %10
w: Come a-|gain,|sweet|love doth|now in-|vite,|Thy|gra- ces,|that re-|frain|
w: Come a-|gain,|that|I may|cease to|mourn,|Through|thy un-|kind dis-|dain;|
w: Gen- tle|love,|draw|forth thy|wound- ing|dart,|Thou|canst not|pierce her|heart;|
 z4 D,4 | G,,4 B,,4 | A,,6 A,,2 | D,8 |: B,,8 | C,6 C,2 | D,6 D,2 | E,6 E,2 | F,6 F,2 | G,4 G,,4 | %20
w: To|do me|due de-|light;|To|see, to|hear, to|touch, to|kiss, to|die, to|
w: For|now, left|and for-|lorn,|I|sit, I|sigh, I|weep, I|faint, I|die, I|
w: For|I that|do ap-|prove|By|sighs and|tears more|hot than|are thy|shafts, Do|
 G,,4 A,,4 | B,,4 C,4 | D,4 B,,4 | (C,2 D,2) E,4 | D,6 D,2 | G,,8 :| %26
w: die with|thee a-|gain in|sweet- * est|sym- pa-|thy.-|
w: die in|dead- ly|pain, and|end- * less|mi- se-|ry.-|
w: tempt, do|tempt; while|she, while|she _ for|tri- umphs|laughs.|

